!!!OTL: Der kleine Tambour.
!!!OTL-incipit: BIN DER KLEINE TAMBOUR VEIT
!!!COM: A. Polenz
!!!ARE: Europa, Mitteleuropa, Deutschland
!!!SCT: F0602
!!!TXL: @@DE
!!!YEM: Copyright 1995, estate of Helmut Schaffrath.
**kern	**text
*ICvox	*
*clefG2	*
*M4/4	*
*met(c)	*
*k[b-e-]	*
*B-:	*
!LO:TX:a:t=Marſchmäßig und feurig.	!
{8f	3._Bin
8f	der
=1	=1
8.b-/L	3._klei-
16aJ	.
8.b-L	-ne
16aJ	.
8.b-L	Tam-
16aJ.	.
8.b-/L	-bour
16ccJ	.
=2	=2
4dd	Veit,
4r	.
4r}	.
{8ee-	mei-
8dd	-ne
=3	=3
8.ccL	Trom-
16bnJ	.
8.ccL	-mel
16bnJ	.
8.ccL	kann
16ee-J	.
8.ddL	ich
16ccJ	.
=4	=4
(4.b-T/	rüh-
16aL	.
16gJ)	.
4f}	-ren,
{8f	und
8f	die
=5	=5
8.b-L	3._Gre-
16aJ	.
8.b-L	-na-
16aJ	.
8.b-L	-die-
16aJ	.
8.b-/L	-re
16ccJ	.
=6	=6
2dd	füh-
4een}	-ren
{8ffr	ʒur
8ff	Pa-
=7	=7
8.ffL	-ra-
16eenJ	.
8.ddL	-de
16ccJ	.
8.ccL	wie
16b-J	.
8.aL	ʒum
16gJ	.
=8	=8
2f.	Streit.
4r}	.
{8f	Und
8f	ʒu
=9	=9
4f	Horn
4cc	und
4dd	Flö-
4cc	-ten-
=10	=10
4cc	-klan-
4b-	-ge
4r}	.
{8b-	miſcht
8b-	ſich
=11	=11
(4dd	nun
8cc)	.
8cc	der
4cc	Trommel-
4b-	.
=12	=12
2a	-ſchlag.
4r}	.
{8f#	Wie
8f#	ſo
=13	=13
4g''	gern
4d''	die
4g''	kleine
4d''	.
=14	=14
4.gSS	Range
8a	.
4b-}/	.
{8a	Wachparaden
8g	.
=155	=15
4dd	.
4dd	.
4d	ſchauen
4d	.
=16	=16
2g	mag!
8.r}	.
{16g	Dirum!
8.g	.
16g-	di-
=17	=17
4f	-rum!
4f''	drum,
4f''	drum,
4f''	drum,
=18	=18
2f''	drum!
4r}	.
{8a	Heiter
8b-/	.
=19	=19
4.cc	glän-
8cc	-ʒet
(8ddL	Aug'
8ccJ)	.
(8b-L	und
8ccJ)	.
=20	=20
*Xtuplet	*
(>12dd/L	Wan-
12ff	.
12ee-J	.
12cc/L	.
12ee-	.
12ddJ)	.
8.b-/}	-ge;
{16f	Dirum!
8.f	.
16f	di-
=21	=21
4f	-rum!
4f	drum,
4f	drum,
4f	drum,
=22	=22
4f	drum!
4r	.
8r}	.
{8b-/	ich
8.a	weiß
16b-/	gar
=23	=23
(4.cc	wohl
16ddL	.
16ccJ	.
4b-/)	.
4a	wa-
=24	=24
2b-/	-rum.
4r}	.
==	==
!!!AGN: Soldaten - Lied, Liebe
!!!ONB: ESAC (Essen Associative Code) Database: FINK
!!!AMT: simple quadruple
!!!AIN: vox
!!!EED: Helmut Schaffrath
!!!EEV: 1.0
!!!RDF**kern: > = above
!!Text: O. L. B. Wolf
!!!GTL: Soldaten- und Jaegerlieder
!!!source: Musikalischer Hausschatz der Deutschen. Eine Sammlung von über 1000 Liedern und Gesängen mit Singstimmen und Klavierbegleitung. Leipzig, Litterarisches Verlags-Haus.
!!!page: 393
!!!URL-scan: https://www.digitale-sammlungen.de/en/view/bsb11144622?page=361
!!!ENC: Anna Maria Matuszewska
!!!EEV: 2024/08/02
*-	*-
